X:2
T:Bridal March
C:Wagner
M:2/4
L:1/8
K:G
[D2d2][D3/2d3/2][D/d/]|[D2d2][D2d2]|[D4d4]|[D4d4]|
|:"G" (D2 G) z/G/|G3z|"G" (D2 "D" A) z/F/|"G" G3z|"G" (D2 G>c|
"C" c2 B>A|"G" G2 F>G|"D" A3)z|"G" (D2 G) z/G/|G3z|"G" (D2 "D" A) z/F/|"G" G3z|"G" (D2 G>B|"Bm" d2 "G" B>G)|
("Am" E2 "C" A>B|"G" G3) G|"C" c2 BA|"Am" E2 E2|"D" F2 "G" G>A|"D" A3 d|
"C" c2 BA|"Am" E2 E2|"D" F2 "G" G>A|"D" A4|
"G" (D2 G) z/G/|G3z|"G" (D2 "D" A) z/F/|"G" G3z|
"G" (D2 G>B|"Bm" d2 "G" B>G)|("Am" E2 "C" A>B|"G" G4) :|

